icons/chromatic.svg

<?xml version="1.0" encoding="UTF-8"?>
<svg width="512px" height="101px" viewBox="0 0 512 101" version="1.1" xmlns="http://www.w3.org/2000/svg" xmlns:xlink="http://www.w3.org/1999/xlink" preserveAspectRatio="xMidYMid">
    <g>
        <path d="M392.072653,34.3171282 C401.972513,34.3171282 409.422172,39.7677203 409.422172,51.6344242 L409.422172,75.3618648 L399.523506,75.3618648 L399.814713,69.6224522 C396.870415,73.92731 392.952242,76.222359 386.875077,76.222359 C378.73917,76.222359 372.068848,72.4927552 372.068848,63.4987413 C372.068848,55.1694918 378.933706,51.5401399 388.247571,51.4422751 L399.523506,51.4422751 C399.523506,45.0297436 396.581594,42.3515897 391.289734,42.3515897 C387.029035,42.3515897 384.192149,43.7897249 382.070154,45.6181259 L374.918862,41.5889604 L374.818611,41.4899021 C374.881865,41.4182937 374.942732,41.3431049 375.004793,41.2774639 C378.612662,37.1850443 383.490387,34.3171282 392.072653,34.3171282 L392.072653,34.3171282 Z M399.523506,61.2932028 L399.523506,58.1364662 L388.935012,58.1364662 C384.620606,58.1364662 381.776559,59.6688858 381.776559,63.2123077 C381.776559,66.6542844 384.522741,68.4695575 389.620065,68.4695575 C395.406023,68.4707506 399.523506,65.6947319 399.523506,61.2932028 Z M504.074145,62.998676 L512,67.4658462 C508.102117,72.7600932 501.751646,76.222359 494.562163,76.222359 C482.705007,76.222359 473.097548,66.8392727 473.097548,55.2673566 C473.097548,43.6978275 482.705007,34.3159347 494.562163,34.3159347 C501.742098,34.3159347 508.07228,37.7638788 511.974937,43.0390303 L504.047888,47.5085874 C501.667355,44.7532834 498.203394,43.1734071 494.562163,43.1822471 C487.735497,43.1822471 482.181072,48.6030023 482.181072,55.2661632 C482.181072,61.9281305 487.735497,67.3524662 494.562163,67.3524662 C498.217554,67.3648429 501.694458,65.7734065 504.074145,62.998676 L504.074145,62.998676 Z M156.292476,62.998676 L164.218331,67.4658462 C160.320448,72.7600932 153.969977,76.222359 146.780494,76.222359 C134.923338,76.222359 125.314685,66.8392727 125.314685,55.2673566 C125.314685,43.6978275 134.922145,34.3159347 146.780494,34.3159347 C153.959235,34.3159347 160.290611,37.7638788 164.193268,43.0390303 L156.266219,47.5085874 C153.885686,44.7532834 150.421725,43.1734071 146.780494,43.1822471 C139.953828,43.1822471 134.399403,48.6030023 134.399403,55.2661632 C134.399403,61.9281305 139.953828,67.3524662 146.780494,67.3524662 C150.435955,67.3651662 153.912989,65.7736708 156.292476,62.998676 L156.292476,62.998676 Z M301.235021,35.1788159 L311.136075,35.1788159 L310.940345,42.0675431 C313.68772,36.997669 317.901874,34.3171282 323.197315,34.3171282 C329.175422,34.3171282 333.100755,37.088373 335.256168,41.9696783 C338.49048,37.1874312 343.392075,34.3171282 349.371375,34.3171282 C359.075506,34.3171282 364.857883,40.6329883 364.857883,50.867021 L364.857883,75.3606713 L354.96041,75.3606713 L354.96041,51.82538 C354.96041,46.2745361 352.898089,43.2132774 347.213576,43.2132774 C341.434779,43.2132774 337.998769,46.6588345 337.998769,53.3577995 L337.998769,75.3618648 L328.101296,75.3618648 L328.101296,51.82538 C328.101296,46.2745361 326.136839,43.2132774 320.451133,43.2132774 C314.56731,43.2132774 311.137268,46.6588345 311.137268,53.3577995 L311.137268,75.3618648 L301.236214,75.3618648 L301.236214,35.1788159 L301.235021,35.1788159 Z M171.376783,11.9347319 L181.27545,11.9347319 L181.27545,42.2573054 C183.92496,37.2841026 188.827748,34.3171282 195.007552,34.3171282 C204.118527,34.3171282 210.396196,40.6329883 210.396196,51.5413333 L210.396196,75.3618648 L200.490368,75.3618648 L200.490368,52.3051562 C200.490368,46.5633566 197.74896,43.2132774 191.960615,43.2132774 C185.491991,43.2132774 181.27545,47.0419394 181.27545,53.5487552 L181.27545,75.3606713 L171.376783,75.3606713 L171.376783,11.9347319 Z M271.908998,34.3171282 C283.770928,34.3171282 293.377193,43.6978275 293.377193,55.2685501 C293.377193,66.8392727 283.770928,76.2235524 271.908998,76.2235524 C260.055422,76.2235524 250.443189,66.8404662 250.443189,55.2685501 C250.443189,43.6978275 260.055422,34.3171282 271.908998,34.3171282 Z M271.908998,43.1846338 C265.085911,43.1846338 259.5291,48.6041958 259.5291,55.2685501 C259.5291,61.9305175 265.085911,67.3548531 271.908998,67.3548531 C278.744019,67.3548531 284.298443,61.9305175 284.298443,55.2685501 C284.298443,48.6041958 278.744019,43.1834406 271.908998,43.1846338 Z M220.237576,35.1788159 L230.143403,35.1788159 L230.041958,42.7346946 C232.792914,36.4212214 237.495198,34.4114126 242.005333,34.4114126 C244.115394,34.4114126 245.776709,34.7575198 247.190974,35.3423217 C247.748326,35.5690816 248.913156,36.1156923 250.046956,36.9439627 C250.046956,36.9439627 248.674462,38.6100513 247.46786,40.6365688 C246.255291,42.6654732 245.436569,44.8399814 245.436569,44.8399814 C243.868345,44.0761585 242.297734,43.4985175 240.04565,43.4985175 C234.163021,43.4985175 230.143403,46.8474033 230.143403,55.8438042 L230.143403,75.3618648 L220.237576,75.3618648 L220.237576,35.1788159 Z M454.465044,75.4215385 L454.465044,35.1788159 L464.480671,35.1788159 L464.480671,75.4215385 L454.465044,75.4215385 Z M452.895627,19.5622191 C452.895627,15.9221259 455.93779,13.2368112 459.471664,13.2368112 C463.007925,13.2368112 466.052476,15.9221259 466.052476,19.5622191 C466.052476,23.3932681 463.007925,25.9807179 459.471664,25.9807179 C455.936597,25.9807179 452.895627,23.3944615 452.895627,19.5622191 Z M423.376261,61.818331 L423.376261,43.3230769 L417.19049,43.3230769 L417.19049,35.1788159 L423.376261,35.1788159 L423.376261,11.9347319 L433.29283,11.9347319 L433.29283,35.1800093 L444.289492,35.1800093 L444.289492,43.3230769 L433.29283,43.3230769 L433.29283,62.0068998 C433.29283,66.6077389 434.864634,67.9503963 437.41628,67.9503963 C439.774583,67.9503963 441.246135,66.8941725 442.325035,66.0324848 L447.039254,72.547655 C444.974545,74.4655664 441.735459,76.3822844 436.432858,76.3822844 C428.678862,76.3822844 423.375068,72.5488485 423.376261,61.818331 Z" fill="#333333"></path>
        <circle fill="#FC521F" cx="50.1258741" cy="50.1258741" r="50.1258741"></circle>
        <path d="M61.9054545,73.1790023 L53.9402145,68.5817436 L77.9027692,54.7601305 C78.8217436,54.2302284 79.6870117,53.6215571 80.4926061,52.9436643 C83.6075711,57.3786107 83.9131002,63.2182751 81.1370816,68.027972 C78.6093083,72.3787221 73.9596134,75.0580918 68.9278508,75.0634965 C66.4728765,75.0634965 64.0465455,74.4130536 61.9054545,73.1778089 L61.9054545,73.1790023 L61.9054545,73.1790023 Z M59.9863497,76.4992448 C60.905324,77.0303403 61.8648765,77.4766993 62.8566527,77.8359347 C60.5687646,82.7458834 55.6612028,85.9300699 50.1020047,85.9300699 C42.342042,85.9300699 36.0249883,79.6201772 36.0249883,71.8649883 L36.0249883,44.2193753 L48.1828998,51.2358042 L48.1828998,68.5829371 C48.1828998,69.2679907 48.549296,69.9005315 49.1424522,70.2430583 L59.9863497,76.4992448 L59.9863497,76.4992448 Z M31.3131562,75.0611096 C26.2841134,75.0560353 21.6367306,72.3785065 19.1098928,68.030359 C17.2342037,64.8032419 16.7287476,60.9594541 17.7063683,57.3571282 C18.6628603,53.747483 21.0246045,50.6709835 24.2645035,48.8142471 L32.2273566,44.2193753 L32.2285501,71.8602145 C32.2285501,72.9212121 32.3192541,73.972662 32.5042424,75.0145641 C32.1080093,75.0455944 31.7093893,75.0611096 31.3131562,75.0611096 L31.3131562,75.0611096 Z M62.2993007,40.8979394 L50.1449697,47.9095944 L35.1072075,39.2366247 C34.5134756,38.895249 33.7830278,38.895249 33.189296,39.2366247 L22.3453986,45.4916177 C21.4264242,46.0203263 20.5599627,46.6254172 19.7531748,47.3068904 C16.6405967,42.8731375 16.3362611,37.0322797 19.1098928,32.2225828 C21.6369715,27.8715625 26.2862832,25.1916972 31.3179301,25.1858648 C33.7705175,25.1858648 36.1992354,25.8398881 38.3403263,27.0739394 L62.2993007,40.8979394 Z M50.1020047,14.3216783 C57.8655478,14.3216783 64.179021,20.6315711 64.179021,28.3903403 L64.179021,37.5800839 L40.223627,23.7596643 C39.3072541,23.2289974 38.345505,22.7808735 37.3497436,22.4205874 C39.6364382,17.5070583 44.5463869,14.3216783 50.1020047,14.3216783 Z M81.1358881,32.2273566 C85.014676,38.9454172 82.7041119,47.5646807 75.9812774,51.4434685 L52.022303,65.2638881 L52.022303,51.2381911 L67.0588718,42.5628345 C67.6532214,42.2203077 68.0196177,41.5877669 68.0196177,40.9027133 L68.0196177,28.3903403 C68.0196177,27.3341166 67.9241399,26.2814732 67.7427319,25.244345 C73.1808517,24.791188 78.3939952,27.5092509 81.1358881,32.2273566 Z" fill="#FFFFFF"></path>
    </g>
</svg>

<svg xmlns="http://www.w3.org/2000/svg" viewBox="0 0 512 100.252">
  <path fill="#333" d="M392.073 34.317c9.9 0 17.35 5.45 17.35 17.317v23.728h-9.9l.292-5.74c-2.945 4.305-6.863 6.6-12.94 6.6-8.136 0-14.806-3.73-14.806-12.723 0-8.33 6.865-11.959 16.179-12.057h11.276c0-6.412-2.942-9.09-8.234-9.09-4.261 0-7.098 1.438-9.22 3.266l-7.151-4.029-.1-.1c.063-.07.124-.146.186-.212 3.608-4.092 8.485-6.96 17.068-6.96zm7.45 26.976v-3.157h-10.588c-4.314 0-7.158 1.533-7.158 5.076 0 3.442 2.746 5.258 7.843 5.258 5.786 0 9.904-2.775 9.904-7.177zM504.075 63 512 67.466c-3.898 5.294-10.248 8.756-17.438 8.756-11.857 0-21.464-9.383-21.464-20.955 0-11.57 9.607-20.951 21.464-20.951 7.18 0 13.51 3.448 17.413 8.723l-7.927 4.47a12.496 12.496 0 0 0-9.486-4.327c-6.827 0-12.38 5.421-12.38 12.084 0 6.662 5.553 12.086 12.38 12.086A12.475 12.475 0 0 0 504.074 63zm-347.782 0 7.926 4.467c-3.898 5.294-10.248 8.756-17.438 8.756-11.857 0-21.465-9.383-21.465-20.955 0-11.57 9.607-20.951 21.465-20.951 7.18 0 13.51 3.448 17.413 8.723l-7.927 4.47a12.496 12.496 0 0 0-9.486-4.327c-6.826 0-12.38 5.421-12.38 12.084 0 6.662 5.554 12.086 12.38 12.086A12.473 12.473 0 0 0 156.292 63zm144.943-27.82h9.901l-.196 6.889c2.748-5.07 6.962-7.75 12.257-7.75 5.978 0 9.904 2.77 12.06 7.652 3.233-4.783 8.135-7.653 14.114-7.653 9.705 0 15.487 6.316 15.487 16.55v24.494h-9.898V51.825c0-5.55-2.062-8.612-7.746-8.612-5.78 0-9.215 3.446-9.215 10.145v22.004H328.1V51.825c0-5.55-1.964-8.612-7.65-8.612-5.884 0-9.314 3.446-9.314 10.145v22.004h-9.9V35.179zM171.377 11.935h9.898v30.322c2.65-4.973 7.553-7.94 13.733-7.94 9.11 0 15.388 6.316 15.388 17.224v23.82h-9.906V52.306c0-5.742-2.741-9.092-8.53-9.092-6.468 0-10.685 3.829-10.685 10.336V75.36h-9.898zm100.532 22.382c11.862 0 21.468 9.38 21.468 20.952 0 11.57-9.606 20.955-21.468 20.955-11.854 0-21.466-9.384-21.466-20.955 0-11.571 9.612-20.952 21.466-20.952zm0 8.868c-6.823 0-12.38 5.42-12.38 12.084 0 6.662 5.557 12.086 12.38 12.086 6.835 0 12.39-5.424 12.39-12.086 0-6.665-5.555-12.086-12.39-12.084zm-51.671-8.006h9.905l-.101 7.556c2.75-6.314 7.453-8.324 11.963-8.324 2.11 0 3.772.347 5.186.931.557.227 1.722.774 2.856 1.602 0 0-1.373 1.666-2.58 3.693-1.212 2.028-2.03 4.203-2.03 4.203-1.569-.764-3.14-1.341-5.391-1.341-5.883 0-9.903 3.348-9.903 12.345v19.518h-9.905zm234.227 40.243V35.179h10.016v40.243zm-1.57-55.86c0-3.64 3.043-6.325 6.577-6.325 3.536 0 6.58 2.685 6.58 6.325 0 3.831-3.044 6.419-6.58 6.419-3.535 0-6.576-2.587-6.576-6.419zm-29.519 42.256V43.323h-6.186V35.18h6.186V11.935h9.917V35.18h10.996v8.143h-10.996v18.684c0 4.6 1.572 5.943 4.123 5.943 2.359 0 3.83-1.056 4.909-1.918l4.714 6.516c-2.064 1.918-5.304 3.834-10.606 3.834-7.754 0-13.058-3.833-13.057-14.564z"/>
  <circle cx="50.126" cy="50.126" r="50.126" fill="#fc521f"/>
  <path fill="#fff" d="m61.905 73.179-7.965-4.597L77.903 54.76a17.943 17.943 0 0 0 2.59-1.816c3.115 4.435 3.42 10.274.644 15.084a14.138 14.138 0 0 1-12.21 7.035c-2.454 0-4.88-.65-7.022-1.885v.001zm-1.919 3.32a17.95 17.95 0 0 0 2.87 1.337c-2.287 4.91-7.195 8.094-12.754 8.094-7.76 0-14.077-6.31-14.077-14.065V44.219l12.158 7.017v17.347c0 .685.366 1.318.96 1.66zm-28.673-1.438a14.13 14.13 0 0 1-12.203-7.03 13.962 13.962 0 0 1-1.404-10.674 13.97 13.97 0 0 1 6.559-8.543l7.962-4.595.002 27.641c0 1.061.09 2.113.275 3.155a15.28 15.28 0 0 1-1.19.046zM62.3 40.898 50.145 47.91l-15.038-8.673a1.924 1.924 0 0 0-1.918 0l-10.844 6.255a17.653 17.653 0 0 0-2.592 1.815c-3.112-4.434-3.417-10.275-.643-15.084a14.137 14.137 0 0 1 12.208-7.037c2.453 0 4.881.654 7.022 1.888zM50.102 14.322c7.764 0 14.077 6.31 14.077 14.068v9.19L40.224 23.76a17.862 17.862 0 0 0-2.874-1.34c2.286-4.913 7.196-8.098 12.752-8.098zm31.034 17.905c3.879 6.718 1.568 15.338-5.155 19.216l-23.959 13.82V51.239l15.037-8.675c.594-.343.96-.975.96-1.66V28.39c0-1.056-.095-2.109-.276-3.146a14.133 14.133 0 0 1 13.393 6.983z"/>
</svg>
